multiplication.svg

<svg fill="currentColor" viewBox="0 0 24 24"><path d="M11 3h2v7.27l6.29-3.63 1 1.73L14 12l6.3 3.64-1 1.73-6.3-3.65V21h-2v-7.27l-6.31 3.63-1-1.73L10 12 3.72 8.36l1-1.73L11 10.26z"/></svg>

<svg  viewBox="0 0 24 24" fill="currentColor"><path  d="M11,3H13V10.27L19.29,6.64L20.29,8.37L14,12L20.3,15.64L19.3,17.37L13,13.72V21H11V13.73L4.69,17.36L3.69,15.63L10,12L3.72,8.36L4.72,6.63L11,10.26V3Z"/></svg>
